source/favicons/icon.svg

<svg width="32" height="32" viewBox="0 0 32 32" fill="none" xmlns="http://www.w3.org/2000/svg">
<rect width="32" height="32" rx="8" fill="#EEEEEE"/>
<path d="M5.82556 20.9805C5.22692 20.1301 4.94069 19.1128 5.01202 18.0891V13.9109C4.9365 12.8797 5.21841 11.8534 5.81393 10.9917C6.35241 10.3269 7.27248 9.99632 8.57414 10C9.8758 10.0037 10.7571 10.2953 11.2181 10.8747C11.7803 11.5927 12.0545 12.4804 11.991 13.3761V14.3566H9.58525V13.2925C9.58201 13.0125 9.55676 12.7332 9.50971 12.4568C9.48062 12.2568 9.38481 12.0711 9.23659 11.9276C9.14509 11.8524 9.03887 11.7954 8.92412 11.76C8.80938 11.7246 8.68842 11.7115 8.56833 11.7215C8.39586 11.6968 8.21966 11.7237 8.06369 11.7984C7.90773 11.8732 7.77957 11.9922 7.69668 12.1393C7.54389 12.5305 7.47665 12.9477 7.49911 13.3649V18.6685C7.4726 19.0885 7.55027 19.5085 7.72574 19.8942C7.80958 20.0333 7.93399 20.1459 8.08369 20.2181C8.23338 20.2904 8.40183 20.3191 8.56833 20.3008C8.73194 20.323 8.89869 20.2951 9.04477 20.2211C9.19086 20.147 9.30883 20.0307 9.38187 19.8886C9.52243 19.4966 9.58357 19.0825 9.56201 18.6685V17.5543H11.9678V18.5181C12.0386 19.427 11.7867 20.3321 11.253 21.0864C10.7416 21.6992 9.85837 22 8.6032 22C7.34803 22 6.36598 21.6657 5.82556 20.9805Z" fill="#111111"/>
<path d="M15.2091 10H17.8074L20 22H17.8402L17.4511 19.3486H15.6312L15.1926 21.9829H13L15.2091 10ZM17.2099 17.84L16.5192 13.0171L15.834 17.84H17.2099Z" fill="#111111"/>
<path d="M21.8134 11.8083H20V10H26V11.8083H24.209V22H21.8078L21.8134 11.8083Z" fill="#111111"/>
</svg>

<svg xmlns="http://www.w3.org/2000/svg" width="32" height="32" fill="none" viewBox="0 0 32 32"><style>@media (prefers-color-scheme:dark){rect{fill:#2f2f2f}path{fill:#eee}}</style><rect width="32" height="32" fill="#EEE" rx="8"/><path fill="#111" d="M5.8 21C5.2 20 5 19 5 18v-4c0-1.1.2-2.1.8-3 .6-.7 1.5-1 2.8-1 1.3 0 2.2.3 2.6.9.6.7.9 1.6.8 2.5v1H9.6V12.5a1 1 0 0 0-.4-.6 1 1 0 0 0-.6-.2l-.5.1c-.2 0-.3.2-.4.3a3 3 0 0 0-.2 1.3v5.3c0 .4 0 .8.2 1.2l.4.3.5.1H9l.4-.4.2-1.2v-1.1H12v1a4 4 0 0 1-.7 2.5c-.6.6-1.4.9-2.7.9-1.3 0-2.2-.3-2.8-1ZM15.2 10h2.6L20 22h-2.2l-.3-2.7h-1.9l-.4 2.7H13l2.2-12Zm2 7.8-.7-4.8-.7 4.8h1.4ZM21.8 11.8H20V10h6v1.8h-1.8V22h-2.4V11.8Z"/></svg>
